Papirus/64x64/apps/clamav.svg

<svg xmlns="http://www.w3.org/2000/svg" width="64" height="64" version="1">
 <path style="fill:#e03c3b" d="m51.708 4.0002a20 20.514 0 0 1 -6.458 11.977c-3.794-2.509-8.342-3.977-13.25-3.977-4.91 0-9.464 1.469-13.258 3.9804a20 20.514 0 0 1 -6.449 -11.847 20 20.514 0 0 0 -0.293 3.3516 20 20.514 0 0 0 3.305 11.269c-4.5014 4.358-7.3046 10.456-7.3046 17.246 0 13.296 10.704 24 24 24s24-10.704 24-24c0-6.788-2.802-12.884-7.3-17.242a20 20.514 0 0 0 3.3 -11.273 20 20.514 0 0 0 -0.292 -3.4848z"/>
 <g style="opacity:.2" transform="matrix(2 0 0 2 .0000328 .99935)">
  <path d="m15 21c-1.184 1.913-3.806 2.568-5.8559 1.463-2.0503-1.104-2.7528-3.55-1.5691-5.463z"/>
  <path d="m17 21c1.1838 1.913 3.8055 2.5684 5.8559 1.4639 2.05-1.105 2.753-3.551 1.569-5.464z"/>
 </g>
 <path style="fill:#ffffff" d="m30 42c-2.368 3.826-7.612 5.136-11.712 2.926-4.1-2.208-5.505-7.1-3.138-10.926z"/>
 <path style="fill:#2c2c2c" d="m22.109 37.75v0.25c-0.4318 2.2051 0.41881 4.8404 2.6113 7.7422 0.02519-0.0061 0.05105-0.0093 0.07617-0.01563-1.0703-2.0429-0.8954-4.3203 0.14648-6.4512l-2.834-1.525z"/>
 <path style="fill:#ffffff" d="m34 42c2.368 3.826 7.612 5.136 11.712 2.926 4.1006-2.208 5.5056-7.1 3.1382-10.926z"/>
 <path style="fill:#2c2c2c" d="m41.891 37.75v0.25c0.4318 2.2051-0.41881 4.8404-2.6113 7.7422-0.02519-0.0061-0.05105-0.0093-0.07617-0.01563 1.0703-2.0429 0.8954-4.3203-0.14648-6.4512l2.834-1.5254z"/>
 <path style="opacity:.2;fill:#ffffff" d="m51.707 4a20 20.514 0 0 1 -6.457 11.977c-3.794-2.509-8.342-3.977-13.25-3.977-4.91 0-9.464 1.469-13.258 3.98a20 20.514 0 0 1 -6.449 -11.847 20 20.514 0 0 0 -0.293 3.3514 20 20.514 0 0 0 0.021 0.4375 20 20.514 0 0 1 0.272 -2.7891 20 20.514 0 0 0 6.449 11.847c3.794-2.511 8.348-3.98 13.258-3.98 4.908 0 9.456 1.468 13.25 3.977a20 20.514 0 0 0 6.457 -11.977 20 20.514 0 0 1 0.272 3.0332 20 20.514 0 0 0 0.021 -0.5488 20 20.514 0 0 0 -0.293 -3.4844zm-36.769 15.127c-4.284 4.33-6.938 10.272-6.938 16.873 0 0.171 0.0101 0.34 0.0137 0.51 0.1318-6.593 2.8983-12.504 7.2913-16.756a20 20.514 0 0 1 -0.367 -0.627zm34.124 0a20 20.514 0 0 1 -0.363 0.631c4.389 4.252 7.155 10.162 7.287 16.752 0.004-0.17 0.014-0.339 0.014-0.51 0-6.601-2.655-12.543-6.938-16.873z"/>
 <path style="opacity:.2" d="m12.021 7.9219a20 20.514 0 0 0 -0.021 0.5625 20 20.514 0 0 0 2.938 10.643c0.12264-0.12398 0.24189-0.25174 0.36719-0.37305a20 20.514 0 0 1 -3.284 -10.832zm39.958 0.1113a20 20.514 0 0 1 -3.28 10.725c0.12388 0.12003 0.242 0.2465 0.36328 0.36914a20 20.514 0 0 0 2.938 -10.643 20 20.514 0 0 0 -0.021 -0.4508zm-43.965 28.477c-0.0033 0.164-0.0137 0.325-0.0137 0.49 0 13.296 10.704 24 24 24s24-10.704 24-24c0-0.165-0.01-0.326-0.014-0.49-0.27 13.057-10.861 23.49-23.986 23.49s-23.716-10.433-23.986-23.49z"/>
</svg>

<?xml version="1.0" encoding="UTF-8" standalone="no"?>
<svg
   id="_图层_1"
   version="1.1"
   viewBox="0 0 64 64" width="64" height="64"
   sodipodi:docname="clamav.svg"
   xml:space="preserve"
   inkscape:version="1.4 (e7c3feb100, 2024-10-09)"
   xmlns:inkscape="http://www.inkscape.org/namespaces/inkscape"
   xmlns:sodipodi="http://sodipodi.sourceforge.net/DTD/sodipodi-0.dtd"
   xmlns="http://www.w3.org/2000/svg"
   xmlns:svg="http://www.w3.org/2000/svg"><sodipodi:namedview
     id="namedview26"
     pagecolor="#505050"
     bordercolor="#eeeeee"
     borderopacity="1"
     inkscape:showpageshadow="0"
     inkscape:pageopacity="0"
     inkscape:pagecheckerboard="0"
     inkscape:deskcolor="#505050"
     inkscape:zoom="10.6875"
     inkscape:cx="32"
     inkscape:cy="29.005848"
     inkscape:window-width="1920"
     inkscape:window-height="939"
     inkscape:window-x="0"
     inkscape:window-y="34"
     inkscape:window-maximized="1"
     inkscape:current-layer="_图层_1" /><!-- Generator: Adobe Illustrator 29.0.1, SVG Export Plug-In . SVG Version: 2.1.0 Build 192)  --><defs
     id="defs6"><style
       id="style1">
      .st0 {
        fill-opacity: .5;
      }

      .st0, .st1, .st2, .st3, .st4, .st5, .st6, .st7 {
        fill: #fff;
      }

      .st8 {
        fill: #133c9a;
      }

      .st2, .st9 {
        display: none;
      }

      .st3 {
        fill-opacity: .2;
      }

      .st4 {
        fill-opacity: .9;
      }

      .st10 {
        fill: #3370ff;
      }

      .st11 {
        fill: url(#_未命名的渐变_3);
      }

      .st12 {
        fill: url(#_未命名的渐变);
      }

      .st5 {
        fill-opacity: .3;
      }

      .st6 {
        fill-opacity: 0;
      }

      .st7 {
        fill-opacity: .7;
      }

      .st13 {
        fill: #00d6b9;
      }

      .st14 {
        fill: url(#_未命名的渐变_2);
      }
    </style><radialGradient
       id="_未命名的渐变"
       data-name="未命名的渐变"
       cx="123.9"
       cy="-40.2"
       fx="123.9"
       fy="-40.2"
       r="59.4"
       gradientTransform="translate(-26.8 25.5) scale(.6 -.7)"
       gradientUnits="userSpaceOnUse"><stop
         offset="0"
         stop-color="#db202e"
         id="stop1" /><stop
         offset="1"
         stop-color="#e01b24"
         id="stop2" /></radialGradient><radialGradient
       id="_未命名的渐变_2"
       data-name="未命名的渐变 2"
       cx="67.6"
       cy="26.8"
       fx="67.6"
       fy="26.8"
       r="105.2"
       gradientTransform="translate(-26.6 25.3) scale(.6 -.7)"
       gradientUnits="userSpaceOnUse"><stop
         offset="0"
         stop-color="#ffb648"
         id="stop3" /><stop
         offset="1"
         stop-color="#ff7800"
         stop-opacity="0"
         id="stop4" /></radialGradient><radialGradient
       id="_未命名的渐变_3"
       data-name="未命名的渐变 3"
       cx="61.7"
       cy="18.6"
       fx="61.7"
       fy="18.6"
       r="68"
       gradientTransform="translate(-26.8 25.8) scale(.6 -.7)"
       gradientUnits="userSpaceOnUse"><stop
         offset="0"
         stop-color="#c64600"
         id="stop5" /><stop
         offset="1"
         stop-color="#a51d2d"
         id="stop6" /></radialGradient></defs><path
     class="st1"
     d="M47.5,64.1H13.8c-7.6,0-13.8-6.3-13.8-13.8V13.7C0,6.2,6.2,0,13.7,0h36.6c7.5,0,13.7,6.2,13.7,13.7v36.6c0,7.5-6.2,13.7-13.7,13.7h-2.9.1Z"
     id="path6"
     style="fill:#f2f2f2;fill-opacity:1" /><g
     id="g26"
     transform="translate(-0.84230526,-1.5350877)"><path
       style="fill:#e03c3b"
       d="m 51.708,4.0002 a 20,20.514 0 0 1 -6.458,11.977 c -3.794,-2.509 -8.342,-3.977 -13.25,-3.977 -4.91,0 -9.464,1.469 -13.258,3.9804 A 20,20.514 0 0 1 12.293,4.1336 20,20.514 0 0 0 12,7.4852 a 20,20.514 0 0 0 3.305,11.269 c -4.5014,4.358 -7.3046,10.456 -7.3046,17.246 0,13.296 10.704,24 24,24 13.296,0 24,-10.704 24,-24 0,-6.788 -2.802,-12.884 -7.3,-17.242 a 20,20.514 0 0 0 3.3,-11.273 20,20.514 0 0 0 -0.292,-3.4848 z"
       id="path1" /><g
       style="opacity:0.2"
       transform="matrix(2,0,0,2,3.28e-5,0.99935)"
       id="g3"><path
         d="M 15,21 C 13.816,22.913 11.194,23.568 9.1441,22.463 7.0938,21.359 6.3913,18.913 7.575,17 Z"
         id="path2" /><path
         d="m 17,21 c 1.1838,1.913 3.8055,2.5684 5.8559,1.4639 2.05,-1.105 2.753,-3.551 1.569,-5.464 z"
         id="path3" /></g><path
       style="fill:#ffffff"
       d="M 30,42 C 27.632,45.826 22.388,47.136 18.288,44.926 14.188,42.718 12.783,37.826 15.15,34 Z"
       id="path4" /><path
       style="fill:#2c2c2c"
       d="M 22.109,37.75 V 38 c -0.4318,2.2051 0.41881,4.8404 2.6113,7.7422 0.02519,-0.0061 0.05105,-0.0093 0.07617,-0.01563 -1.0703,-2.0429 -0.8954,-4.3203 0.14648,-6.4512 l -2.834,-1.525 z"
       id="path5" /><path
       style="fill:#ffffff"
       d="m 34,42 c 2.368,3.826 7.612,5.136 11.712,2.926 4.1006,-2.208 5.5056,-7.1 3.1382,-10.926 z"
       id="path6-2" /><path
       style="fill:#2c2c2c"
       d="M 41.891,37.75 V 38 c 0.4318,2.2051 -0.41881,4.8404 -2.6113,7.7422 -0.02519,-0.0061 -0.05105,-0.0093 -0.07617,-0.01563 1.0703,-2.0429 0.8954,-4.3203 -0.14648,-6.4512 l 2.834,-1.5254 z"
       id="path7" /><path
       style="opacity:0.2;fill:#ffffff"
       d="M 51.707,4 A 20,20.514 0 0 1 45.25,15.977 C 41.456,13.468 36.908,12 32,12 27.09,12 22.536,13.469 18.742,15.98 A 20,20.514 0 0 1 12.293,4.133 20,20.514 0 0 0 12,7.4844 a 20,20.514 0 0 0 0.021,0.4375 20,20.514 0 0 1 0.272,-2.7891 20,20.514 0 0 0 6.449,11.847 c 3.794,-2.511 8.348,-3.98 13.258,-3.98 4.908,0 9.456,1.468 13.25,3.977 A 20,20.514 0 0 0 51.707,4.9998 20,20.514 0 0 1 51.979,8.033 20,20.514 0 0 0 52,7.4842 20,20.514 0 0 0 51.707,3.9998 Z M 14.938,19.127 C 10.654,23.457 8,29.399 8,36 8,36.171 8.0101,36.34 8.0137,36.51 8.1455,29.917 10.912,24.006 15.305,19.754 a 20,20.514 0 0 1 -0.367,-0.627 z m 34.124,0 a 20,20.514 0 0 1 -0.363,0.631 C 53.088,24.01 55.854,29.92 55.986,36.51 55.99,36.34 56,36.171 56,36 56,29.399 53.345,23.457 49.062,19.127 Z"
       id="path8" /><path
       style="opacity:0.2"
       d="M 12.021,7.9219 A 20,20.514 0 0 0 12,8.4844 a 20,20.514 0 0 0 2.938,10.643 c 0.12264,-0.12398 0.24189,-0.25174 0.36719,-0.37305 a 20,20.514 0 0 1 -3.284,-10.832 z m 39.958,0.1113 a 20,20.514 0 0 1 -3.28,10.725 c 0.12388,0.12003 0.242,0.2465 0.36328,0.36914 a 20,20.514 0 0 0 2.938,-10.643 20,20.514 0 0 0 -0.021,-0.4508 z M 8.014,36.5102 c -0.0033,0.164 -0.0137,0.325 -0.0137,0.49 0,13.296 10.704,24 24,24 13.296,0 24,-10.704 24,-24 0,-0.165 -0.01,-0.326 -0.014,-0.49 -0.27,13.057 -10.861,23.49 -23.986,23.49 -13.125,0 -23.716,-10.433 -23.986,-23.49 z"
       id="path9" /></g></svg>
